!!!!SEGMENT: Ric2028-Letamini_in_Domino--Selectissimarum_mutetarum
!!!id: Ric2028
!!!SMS: Selectissimarum mutetarum
!!!AGN: Motet
!!!voices: 5
!!!COM: Jean Richafort
!!!OTL: Letamini in Domino (Selectissimarum mutetarum)
**kern	**kern	**kern	**kern	**kern
*part5	*part4	*part3	*part2	*part1
*staff5	*staff4	*staff3	*staff2	*staff1
*I"Bassus	*I"Tenor II	*I"Tenor I	*I"Altus	*I"Superius
*I'B.	*I'T. II	*I'T. I	*I'A.	*I'S.
*clefF4	*clefGv2	*clefGv2	*clefGv2	*clefG2
*k[]	*k[]	*k[]	*k[]	*k[]
*M2/1	*M2/1	*M2/1	*M2/1	*M2/1
*met(C|)	*met(C|)	*met(C|)	*met(C|)	*met(C|)
=1	=1	=1	=1	=1
!!section: Prima pars: Letamini in Domino
!!!OMD: Prima pars: Letamini in Domino
0r	1r	0r	0r	1ee
.	1A	.	.	[1ee
=2	=2	=2	=2	=2
0r	1.A	1r	1A	2ee]
.	.	.	.	2dd
.	.	1A	[1A	2cc
.	2G	.	.	2b
=3	=3	=3	=3	=3
1D	2F	1.A	2A]	1a
.	2E	.	2G	.
[1D	1D	.	2F	1r
.	.	2G	2E	.
=4	=4	=4	=4	=4
2D]	0r	2F	1D	2r
2C	.	2E	.	2dd
2BB	.	2D	2r	2dd
2AA	.	2C	2A	[2ee
=5	=5	=5	=5	=5
2GG	1r	1D	2B	4ee]
.	.	.	.	4dd
2BB	.	.	2G	1dd
1AA	1A	1E	1A	.
.	.	.	.	2cc#i
=6	=6	=6	=6	=6
0D	1.A	0D	2r	1dd
.	.	.	1D	.
.	.	.	.	[1d
.	2G	.	2E	.
=7	=7	=7	=7	=7
0r	2F	1r	2F	2d]
.	2E	.	2G	2e
.	2D	1d	2A	2f
.	[2G	.	[2B	2g
=8	=8	=8	=8	=8
1r	4G]	1d	4B]	1a
.	4F	.	4A	.
.	2D	.	1A	.
2r	1E	1c#i	.	2r
2G	.	.	2G	2e
=9	=9	=9	=9	=9
2.F	1D	1d	2A	2f
.	.	.	1d	2f
4G	.	.	.	.
1E	2r	1e	.	1g
.	2G	.	2c#i	.
=10	=10	=10	=10	=10
0D	2.F	1.f	2d	1a
.	.	.	4D	.
.	4E	.	4E	.
.	1D	.	4F	1dd
.	.	.	4G	.
.	.	2e	[2A	.
=11	=11	=11	=11	=11
1GG	1r	2d	2A]	1dd
.	.	2c	4G	.
.	.	.	4F	.
1GG	2r	1B	1G	2dd
.	2G	.	.	4d
.	.	.	.	4e
=12	=12	=12	=12	=12
2.D	2.F	1A	1A	4f
.	.	.	.	4g
.	.	.	.	1a
4C	4E	.	.	.
1BB	1D	1d	1r	.
.	.	.	.	2g#i
=13	=13	=13	=13	=13
1AA	2r	1c	2r	1a
.	1A	.	2c	.
1r	.	2A	2c	1ee
.	2G	2B	[2B	.
=14	=14	=14	=14	=14
0r	2F	2c	4B]	1ff
.	.	.	4A	.
.	2D	2d	1A	.
.	2.E	1B	.	2r
.	.	.	2G	2ee
.	4D	.	.	.
=15	=15	=15	=15	=15
2.AA	2C	[0A	1.A	2ee
.	2BB	.	.	2dd
4BB	.	.	.	.
2C	1AA	.	.	2.cc
2C	.	.	2G	.
.	.	.	.	4b
=16	=16	=16	=16	=16
2D	0r	0A]	2F	2a
2D	.	.	2D	1dd
1AA	.	.	1E	.
.	.	.	.	2cc#i
=17	=17	=17	=17	=17
1.A	1D	0r	2D	1dd
.	.	.	1f	.
.	1C	.	.	1r
2G	.	.	[2e	.
=18	=18	=18	=18	=18
2F	1D	0r	4e]	1r
.	.	.	4d	.
4E	.	.	1d	.
4D	.	.	.	.
1E	1AA	.	.	2r
.	.	.	2c#i	2ee
=19	=19	=19	=19	=19
1D	2r	1r	2d	2.ff
.	1A	.	2A	.
.	.	.	.	4ee
1C	.	1A	1c	2ff
.	2G	.	.	[2ee
=20	=20	=20	=20	=20
1D	2F	1.A	2.F	4ee]
.	.	.	.	4dd
.	4E	.	.	1dd
.	4D	.	4G	.
1AA	1E	.	[1A	.
.	.	2G	.	2cc#i
=21	=21	=21	=21	=21
2r	1D	1F	2A]	1dd
1D	.	.	2B	.
.	1AA	1E	1c	1ee
2C	.	.	.	.
=22	=22	=22	=22	=22
1.D	0r	1.F	2r	1a
.	.	.	1A	.
.	.	.	.	2r
4C	.	4E	2B	[2ff
4BB	.	4D	.	.
=23	=23	=23	=23	=23
2AA	1r	1C	2c	2ff]
2C	.	.	1A	2ee
1BB	2r	1D	.	1dd
.	2G	.	2G	.
=24	=24	=24	=24	=24
2.AA	2A	[0E	2.c	2cc
.	1c	.	.	2.ee
4BB	.	.	4B	.
4C	.	.	2A	.
4D	.	.	.	4dd
2E	[2B	.	2G	2b
=25	=25	=25	=25	=25
1AA	4B]	0E]	1A	2.cc
.	4A	.	.	.
.	1A	.	.	.
.	.	.	.	4dd
2r	.	.	1E	2b
2C	2G	.	.	2ee
=26	=26	=26	=26	=26
2D	2.F	0r	2.F	1a
1F	.	.	.	.
.	4E	.	4G	.
.	2D	.	4A	2r
.	.	.	4B	.
[2E	2AA	.	2c	2cc
=27	=27	=27	=27	=27
4E]	1D	1r	2.F	2dd
4D	.	.	.	.
1D	.	.	.	1ff
.	.	.	4G	.
.	1AA	1A	2A	.
2C#i	.	.	2E	[2ee
=28	=28	=28	=28	=28
1D	2r	1.A	2F	4ee]
.	.	.	.	4dd
.	2.A	.	2D	1dd
1AA	.	.	1E	.
.	4G	.	.	.
.	2E	2G	.	2cc#i
=29	=29	=29	=29	=29
1r	2F	1.F	2D	1dd
.	2D	.	2.A	.
2r	1AA	.	.	1cc
.	.	.	4B	.
2C	.	2E	2c	.
=30	=30	=30	=30	=30
2D	2r	1D	2.F	1r
1F	2A	.	.	.
.	.	.	4G	.
.	2A	1C	1A	2r
[2E	2G	.	.	2ee
=31	=31	=31	=31	=31
4E]	2F	1.D	1r	2.ff
4D	.	.	.	.
1D	2D	.	.	.
.	.	.	.	4dd
.	1A	.	1A	2ff
2C	.	2E	.	[2ee
=32	=32	=32	=32	=32
2BB	1r	2F	1B	4ee]
.	.	.	.	4dd
2GG	.	2G	.	1dd
1AA	1A	1E	2.A	.
.	.	.	.	2cc#i
.	.	.	4G	.
=33	=33	=33	=33	=33
0r	2.A	0D	2.F	2dd
.	.	.	.	2.d
.	4G	.	4E	.
.	2.F	.	1D	.
.	.	.	.	4e
.	.	.	.	4f
.	4E	.	.	4g
=34	=34	=34	=34	=34
1r	2D	2r	2r	4a
.	.	.	.	4b
.	2C	2A	2E	2cc
2r	1D	2.A	2.F	2a
2D	.	.	.	2d
.	.	4G	4G	.
=35	=35	=35	=35	=35
2.D	0r	2.F	2A	1dd
.	.	.	2D	.
4C	.	4E	.	.
2BB	.	2D	2G	2dd
2AA	.	2C	2A	[2ee
=36	=36	=36	=36	=36
2GG	1r	1D	2B	4ee]
.	.	.	.	4dd
2BB	.	.	2G	1dd
1AA	1A	1E	[1A	.
.	.	.	.	2cc#i
=37	=37	=37	=37	=37
1r	1.A	[0Dl	2A]	[0ddl
.	.	.	2G	.
[1D	.	.	2F	.
.	2G	.	2E	.
=38	=38	=38	=38	=38
2D]	2F	0D_	1D	0dd_
2C	2E	.	.	.
2BB	1D	.	[1d	.
2AA	.	.	.	.
=39	=39	=39	=39	=39
0GG	1G	0D_	2d]	0dd_
.	.	.	2c	.
.	1G	.	4B	.
.	.	.	4A	.
.	.	.	2B	.
=40	=40	=40	=40	=40
0Dl	0Fl	0D]	0Al	0dd]
==	==	==	==	==
*-	*-	*-	*-	*-
!!!system-decoration: s1,s2,s3,s4,s5
!!!RDF**kern: i = editorial accidental
!!!RDF**kern: l = terminal long
!!!ENC: Max Blistain
!!!END: 2026/2/9
!!!EED: Benjamin Ory
!!!EEV: 2026/02/10
!!!YEC: Copyright 2026 Benjamin Ory, All Rights Reserved
!!!ONB: Translated from MusicXML on 2026/02/10
